X:1
L:1/8
M:3/4
K:Dmin
|: (3a(ba) (3g(ag) f>e | (3g(ag) (3f(gf) e>^c | d>e f<g a>f |1,3 (3d(ed) (3^c(ec) A2 :|2,4 
 (3(^cec) [dD]4 :: F>A E<^C D>E | (3F(AF) E2 D2 | A>^c d>e f>e |1,3 (3d(ed) (3^c(ec) A2 :|2 
 (3(^cec) [dD]4 :|4 (3(^cec) [dD]2- [dD]A- |: (3A2 .a2 .g2 f>A | (3A2 .g2 .f2 e>^c | 
 d>e f<g a>f |1,3 (3d(ed) (3^c(ec) A2 :|2,4 (3(^cec) [dD]4 :|
